src/lib/packages/icons/src/assets/line/file-upload.svg

<svg xmlns="http://www.w3.org/2000/svg" width="24" height="24" fill="none"><path fill="currentColor" d="m20.53 8.47-6-6a.749.749 0 0 0-.53-.22H8C5.582 2.25 4.25 3.582 4.25 6v12c0 2.418 1.332 3.75 3.75 3.75h9c2.418 0 3.75-1.332 3.75-3.75V9a.747.747 0 0 0-.22-.53Zm-5.78-3.659 3.439 3.439H17c-1.577 0-2.25-.673-2.25-2.25V4.811ZM17 20.25H8c-1.577 0-2.25-.673-2.25-2.25V6c0-1.577.673-2.25 2.25-2.25h5.25V6c0 2.418 1.332 3.75 3.75 3.75h2.25V18c0 1.577-.673 2.25-2.25 2.25Zm-3.47-6.78a.75.75 0 0 1-1.06 1.061l-.72-.72V17a.75.75 0 0 1-1.5 0v-3.189l-.72.72a.75.75 0 0 1-1.061-1.061l2-2a.749.749 0 0 1 .817-.162.75.75 0 0 1 .244.162l2 2Z"/></svg>

<svg width="24" height="24" viewBox="0 0 24 24" fill="none" xmlns="http://www.w3.org/2000/svg">
<path d="M20.53 8.47L14.53 2.47C14.389 2.329 14.199 2.25 14 2.25H8C5.582 2.25 4.25 3.582 4.25 6V18C4.25 20.418 5.582 21.75 8 21.75H17C19.418 21.75 20.75 20.418 20.75 18V9C20.75 8.801 20.671 8.61 20.53 8.47ZM14.75 4.811L18.189 8.25H17C15.423 8.25 14.75 7.577 14.75 6V4.811ZM17 20.25H8C6.423 20.25 5.75 19.577 5.75 18V6C5.75 4.423 6.423 3.75 8 3.75H13.25V6C13.25 8.418 14.582 9.75 17 9.75H19.25V18C19.25 19.577 18.577 20.25 17 20.25ZM13.53 13.47C13.823 13.763 13.823 14.238 13.53 14.531C13.384 14.677 13.192 14.751 13 14.751C12.808 14.751 12.616 14.678 12.47 14.531L11.75 13.811V17C11.75 17.414 11.414 17.75 11 17.75C10.586 17.75 10.25 17.414 10.25 17V13.811L9.53003 14.531C9.23703 14.824 8.76199 14.824 8.46899 14.531C8.17599 14.238 8.17599 13.763 8.46899 13.47L10.469 11.47C10.538 11.401 10.6209 11.346 10.7129 11.308C10.8959 11.232 11.1029 11.232 11.2859 11.308C11.3779 11.346 11.461 11.401 11.53 11.47L13.53 13.47Z" fill="currentColor"/>
</svg>
